icons/line/map.svg

<svg width="24" height="24" fill="none" xmlns="http://www.w3.org/2000/svg"><path d="M9 4L3 8v12l6-4M9 4l6 4M9 4v12m6-8l6-4v12l-6 4m0-12v12m0 0l-6-4" stroke="currentColor" stroke-width="2" stroke-linecap="round" stroke-linejoin="round"/></svg>

<svg width="24" height="24" viewBox="0 0 24 24" fill="none" xmlns="http://www.w3.org/2000/svg">
<path d="M9 4L3 8V20L9 16M9 4L15 8M9 4V16M15 8L21 4V16L15 20M15 8V20M15 20L9 16" stroke="currentColor" stroke-width="2" stroke-linecap="round" stroke-linejoin="round"/>
</svg>
